apps/www/public/images/logos/publicity/pebblely.svg

<svg width="151" height="60" viewBox="0 0 151 60" fill="none" xmlns="http://www.w3.org/2000/svg">
<path fill-rule="evenodd" clip-rule="evenodd" d="M36.4261 17.6315C33.7848 16.9751 31.2797 18.1285 29.5591 19.8276L27.3684 21.9909C26.5337 22.8152 25.4971 23.4057 24.3623 23.7032L16.4488 25.7782C14.1085 26.3919 11.4862 28.0255 11.0311 30.9653C10.654 33.401 11.1304 36.2326 13.5311 38.4979C15.8751 40.7096 19.8604 42.1933 26.0781 42.4836C35.901 42.9422 42.5834 41.1906 45.9231 37.6443C47.6396 35.8215 48.4079 33.586 48.2734 31.1492C48.1412 28.7523 47.143 26.2278 45.4649 23.7107C42.9222 19.8967 39.1214 18.3012 36.4261 17.6315ZM31.4408 21.7331C32.7275 20.4625 34.3198 19.8675 35.7802 20.2304C38.1298 20.8143 41.2067 22.1512 43.2367 25.1962C44.7454 27.4592 45.5018 29.5251 45.5995 31.2967C45.695 33.0284 45.1687 34.5392 43.9735 35.8083C41.4897 38.4458 35.8802 40.2603 26.203 39.8085C20.2793 39.5319 17.0457 38.1323 15.369 36.5501C13.7491 35.0216 13.403 33.1486 13.6775 31.375C13.893 29.9832 15.2284 28.8668 17.128 28.3687L25.0416 26.2936C26.6302 25.8771 28.0815 25.0504 29.2501 23.8964L31.4408 21.7331Z" fill="#7E7E7E"/>
<path fill-rule="evenodd" clip-rule="evenodd" d="M84.9707 20.1192V28.8696C85.2981 28.3472 85.7032 27.927 86.1858 27.6089C86.8486 27.1817 87.5998 26.9682 88.4394 26.9682C89.3231 26.9682 90.1406 27.1817 90.8918 27.6089C91.6429 28.0213 92.2468 28.6252 92.7034 29.4206C93.16 30.2012 93.3883 31.1512 93.3883 32.2706C93.3883 33.3753 93.16 34.3253 92.7034 35.1207C92.2468 35.916 91.6429 36.5273 90.8918 36.9544C90.1406 37.3668 89.3231 37.573 88.4394 37.573C87.5998 37.573 86.8486 37.3595 86.1858 36.9323C85.7032 36.6142 85.2981 36.194 84.9707 35.6716V37.3521H82.5625V20.1192H84.9707ZM85.3905 34.0381C85.1106 33.552 84.9707 32.9629 84.9707 32.2706C84.9707 31.5784 85.1106 30.9966 85.3905 30.5252C85.6851 30.0392 86.0533 29.6709 86.4952 29.4206C86.937 29.1702 87.3863 29.045 87.8429 29.045C88.4026 29.045 88.9107 29.1702 89.3673 29.4206C89.8386 29.6709 90.2142 30.0392 90.4941 30.5252C90.7739 31.0113 90.9138 31.5931 90.9138 32.2706C90.9138 32.9481 90.7739 33.5299 90.4941 34.016C90.2142 34.5021 89.8386 34.8703 89.3673 35.1207C88.9107 35.3711 88.4026 35.4963 87.8429 35.4963C87.3863 35.4963 86.937 35.3711 86.4952 35.1207C86.0533 34.8703 85.6851 34.5094 85.3905 34.0381Z" fill="#7E7E7E"/>
<path fill-rule="evenodd" clip-rule="evenodd" d="M58.8576 21.8867V37.3521H61.4646V31.4973H63.5193C64.6387 31.4973 65.6108 31.3059 66.4357 30.9229C67.2752 30.5252 67.9233 29.9655 68.3799 29.2438C68.8365 28.5221 69.0648 27.6678 69.0648 26.681C69.0648 25.6941 68.8365 24.8472 68.3799 24.1402C67.9233 23.4185 67.2752 22.8662 66.4357 22.4832C65.6108 22.0855 64.6387 21.8867 63.5193 21.8867H58.8576ZM61.4646 24.1844V29.1996H63.5193C64.4178 29.1996 65.1395 28.986 65.6845 28.5589C66.2294 28.1318 66.5019 27.5058 66.5019 26.681C66.5019 25.8561 66.2294 25.2375 65.6845 24.8251C65.1395 24.398 64.4178 24.1844 63.5193 24.1844H61.4646Z" fill="#7E7E7E"/>
<path fill-rule="evenodd" clip-rule="evenodd" d="M70.6301 35.0544C71.0573 35.8498 71.6612 36.4684 72.4418 36.9102C73.2372 37.3521 74.1504 37.573 75.1814 37.573C76.3597 37.573 77.3686 37.3447 78.2082 36.8882C79.0478 36.4316 79.7326 35.7467 80.2629 34.8335L78.2082 33.9939C77.8842 34.5389 77.4791 34.9439 76.9931 35.209C76.507 35.4742 75.9399 35.6067 75.2919 35.6067C74.6732 35.6067 74.143 35.4742 73.7011 35.209C73.274 34.9439 72.95 34.561 72.729 34.0602C72.5752 33.7013 72.4749 33.2889 72.4282 32.8229H80.3292C80.3439 32.764 80.3513 32.6683 80.3513 32.5357C80.366 32.4032 80.3734 32.278 80.3734 32.1601C80.3734 31.0702 80.1672 30.1423 79.7547 29.3764C79.3571 28.5957 78.7826 27.9992 78.0315 27.5868C77.2803 27.1744 76.3671 26.9682 75.2919 26.9682C74.2166 26.9682 73.2813 27.1891 72.486 27.631C71.6906 28.0581 71.072 28.6694 70.6301 29.4647C70.203 30.2601 69.9894 31.1954 69.9894 32.2706C69.9894 33.3311 70.203 34.259 70.6301 35.0544ZM72.4929 31.188H77.7793C77.7487 30.7538 77.6413 30.3709 77.457 30.0392C77.2508 29.6415 76.9562 29.3322 76.5733 29.1112C76.2051 28.8903 75.7706 28.7798 75.2698 28.7798C74.6659 28.7798 74.1504 28.9124 73.7232 29.1775C73.2961 29.4426 72.972 29.8256 72.7511 30.3264C72.638 30.5827 72.5519 30.8699 72.4929 31.188Z" fill="#7E7E7E"/>
<path fill-rule="evenodd" clip-rule="evenodd" d="M97.9808 28.8696V20.1192H95.5726V37.3521H97.9808V35.6716C98.3083 36.194 98.7133 36.6142 99.196 36.9323C99.8588 37.3595 100.61 37.573 101.45 37.573C102.333 37.573 103.151 37.3668 103.902 36.9544C104.653 36.5273 105.257 35.916 105.714 35.1207C106.17 34.3253 106.398 33.3753 106.398 32.2706C106.398 31.1512 106.17 30.2012 105.714 29.4206C105.257 28.6252 104.653 28.0213 103.902 27.6089C103.151 27.1817 102.333 26.9682 101.45 26.9682C100.61 26.9682 99.8588 27.1817 99.196 27.6089C98.7133 27.927 98.3083 28.3472 97.9808 28.8696ZM97.9808 32.2706C97.9808 32.9629 98.1208 33.552 98.4006 34.0381C98.6952 34.5094 99.0634 34.8703 99.5053 35.1207C99.9472 35.3711 100.396 35.4963 100.853 35.4963C101.413 35.4963 101.921 35.3711 102.377 35.1207C102.849 34.8703 103.224 34.5021 103.504 34.016C103.784 33.5299 103.924 32.9481 103.924 32.2706C103.924 31.5931 103.784 31.0113 103.504 30.5252C103.224 30.0392 102.849 29.6709 102.377 29.4206C101.921 29.1702 101.413 29.045 100.853 29.045C100.396 29.045 99.9472 29.1702 99.5053 29.4206C99.0634 29.6709 98.6952 30.0392 98.4006 30.5252C98.1208 30.9966 97.9808 31.5784 97.9808 32.2706Z" fill="#7E7E7E"/>
<path d="M108.671 20.1192H111.057V37.3521H108.671V20.1192Z" fill="#7E7E7E"/>
<path fill-rule="evenodd" clip-rule="evenodd" d="M113.976 35.0544C114.403 35.8498 115.007 36.4684 115.787 36.9102C116.583 37.3521 117.496 37.573 118.527 37.573C119.705 37.573 120.714 37.3447 121.554 36.8882C122.393 36.4316 123.078 35.7467 123.608 34.8335L121.554 33.9939C121.23 34.5389 120.825 34.9439 120.339 35.209C119.853 35.4742 119.285 35.6067 118.637 35.6067C118.019 35.6067 117.489 35.4742 117.047 35.209C116.62 34.9439 116.295 34.561 116.075 34.0602C115.921 33.7013 115.82 33.2889 115.774 32.8229H123.675C123.689 32.764 123.697 32.6683 123.697 32.5357C123.712 32.4032 123.719 32.278 123.719 32.1601C123.719 31.0702 123.513 30.1423 123.1 29.3764C122.703 28.5957 122.128 27.9992 121.377 27.5868C120.626 27.1744 119.713 26.9682 118.637 26.9682C117.562 26.9682 116.627 27.1891 115.832 27.631C115.036 28.0581 114.418 28.6694 113.976 29.4647C113.549 30.2601 113.335 31.1954 113.335 32.2706C113.335 33.3311 113.549 34.259 113.976 35.0544ZM115.838 31.188H121.125C121.094 30.7538 120.987 30.3709 120.803 30.0392C120.596 29.6415 120.302 29.3322 119.919 29.1112C119.551 28.8903 119.116 28.7798 118.615 28.7798C118.011 28.7798 117.496 28.9124 117.069 29.1775C116.642 29.4426 116.318 29.8256 116.097 30.3264C115.984 30.5827 115.897 30.8699 115.838 31.188Z" fill="#7E7E7E"/>
<path d="M125.996 20.1192H128.383V37.3521H125.996V20.1192Z" fill="#7E7E7E"/>
<path d="M133.797 42.2127L140.426 27.1891H137.863L135.228 33.7946L132.56 27.1891H129.821L133.908 36.1591L131.257 42.2127H133.797Z" fill="#7E7E7E"/>
</svg>

<svg xmlns="http://www.w3.org/2000/svg" width="151" height="60" fill="none" viewBox="0 0 151 60"><path fill="#7e7e7e" fill-rule="evenodd" d="M36.426 17.632c-2.641-.657-5.146.496-6.867 2.196l-2.19 2.163a6.7 6.7 0 0 1-3.007 1.712l-7.913 2.075c-2.34.614-4.963 2.248-5.418 5.187-.377 2.436.1 5.268 2.5 7.533 2.344 2.212 6.33 3.695 12.547 3.986 9.823.458 16.505-1.293 19.845-4.84 1.717-1.822 2.485-4.058 2.35-6.495-.132-2.397-1.13-4.921-2.808-7.438-2.543-3.814-6.344-5.41-9.039-6.08m-4.985 4.101c1.287-1.27 2.879-1.866 4.34-1.503 2.349.584 5.426 1.921 7.456 4.966 1.508 2.263 2.265 4.33 2.362 6.1.096 1.732-.43 3.243-1.625 4.512-2.484 2.638-8.094 4.452-17.771 4-5.924-.276-9.157-1.676-10.834-3.258-1.62-1.528-1.966-3.401-1.691-5.175.215-1.392 1.55-2.508 3.45-3.006l7.914-2.075a9.4 9.4 0 0 0 4.208-2.398zM84.97 20.12v8.75a4.1 4.1 0 0 1 1.216-1.261q.994-.64 2.253-.64 1.326 0 2.453.64 1.126.618 1.811 1.812.685 1.17.685 2.85 0 1.656-.685 2.85-.684 1.192-1.811 1.833a5 5 0 0 1-2.453.619q-1.26 0-2.253-.64a4.1 4.1 0 0 1-1.215-1.261v1.68h-2.409V20.12zm.42 13.918q-.42-.729-.42-1.767 0-1.039.42-1.746.442-.729 1.105-1.104t1.348-.376q.84 0 1.524.376.707.375 1.127 1.104t.42 1.746-.42 1.745-1.127 1.105q-.684.375-1.524.375-.685 0-1.348-.375a3.1 3.1 0 0 1-1.105-1.083M58.858 21.887v15.465h2.607v-5.855h2.054q1.68 0 2.917-.574 1.26-.596 1.944-1.68.685-1.08.685-2.562 0-1.48-.685-2.54-.686-1.083-1.944-1.658-1.237-.597-2.917-.596zm2.607 2.297V29.2h2.054q1.348 0 2.166-.641.816-.64.817-1.878 0-1.238-.817-1.856-.818-.64-2.166-.64zM70.63 35.054a4.6 4.6 0 0 0 1.812 1.856q1.192.663 2.74.663 1.767 0 3.026-.685 1.26-.684 2.055-2.054l-2.055-.84q-.486.818-1.215 1.215t-1.701.398q-.928 0-1.59-.398-.642-.398-.973-1.149a4.2 4.2 0 0 1-.3-1.237h7.9q.022-.089.022-.287.022-.2.022-.376 0-1.635-.618-2.784a4.13 4.13 0 0 0-1.724-1.79q-1.126-.618-2.74-.618-1.612 0-2.805.663a4.54 4.54 0 0 0-1.856 1.834q-.64 1.192-.64 2.806 0 1.59.64 2.783m1.863-3.866h5.286a2.7 2.7 0 0 0-.322-1.149 2.24 2.24 0 0 0-.884-.928q-.552-.33-1.303-.331-.906 0-1.547.397a2.5 2.5 0 0 0-.972 1.15q-.17.384-.258.861M97.98 28.87v-8.75h-2.407v17.232h2.408v-1.68q.49.783 1.215 1.26.994.64 2.254.641 1.325 0 2.452-.619 1.127-.64 1.812-1.833.684-1.194.684-2.85 0-1.68-.684-2.85-.686-1.194-1.812-1.812a4.9 4.9 0 0 0-2.452-.64q-1.26 0-2.254.64a4.1 4.1 0 0 0-1.215 1.26m0 3.4q0 1.04.42 1.768.442.706 1.105 1.083.663.375 1.348.375.84 0 1.524-.375.707-.376 1.127-1.105.42-.73.42-1.745 0-1.017-.42-1.746a2.8 2.8 0 0 0-1.127-1.104 3.1 3.1 0 0 0-1.524-.376q-.685 0-1.348.376-.663.375-1.104 1.104-.42.707-.42 1.746" clip-rule="evenodd"/><path fill="#7e7e7e" d="M108.671 20.12h2.386v17.232h-2.386z"/><path fill="#7e7e7e" fill-rule="evenodd" d="M113.976 35.054a4.6 4.6 0 0 0 1.811 1.856q1.194.663 2.74.663 1.767 0 3.027-.685 1.259-.684 2.054-2.054l-2.054-.84q-.486.818-1.215 1.215t-1.702.398q-.927 0-1.59-.398a2.5 2.5 0 0 1-.972-1.149 4.2 4.2 0 0 1-.301-1.237h7.901q.022-.089.022-.287.022-.2.022-.376 0-1.635-.619-2.784a4.13 4.13 0 0 0-1.723-1.79q-1.126-.618-2.74-.618-1.613 0-2.805.663a4.54 4.54 0 0 0-1.856 1.834q-.64 1.192-.641 2.806 0 1.59.641 2.783m1.862-3.866h5.287a2.7 2.7 0 0 0-.322-1.149 2.24 2.24 0 0 0-.884-.928q-.552-.33-1.304-.331-.906 0-1.546.397-.64.399-.972 1.15a4 4 0 0 0-.259.861" clip-rule="evenodd"/><path fill="#7e7e7e" d="M125.996 20.12h2.387v17.232h-2.387zM133.797 42.213l6.629-15.024h-2.563l-2.635 6.606-2.668-6.606h-2.739l4.087 8.97-2.651 6.054z"/></svg>
